X:23
T:Jackie's Favorite
R:reel
C:Paul S. Cranford
O:20th Century Cape Breton
D:The Lighthouse, Cranford Publications
B:The Lighthouse Collection, ISBN 0-9691181-5-5
N:Contacts ...
N:..... Cranford Publications <http://www.cranfordpub.com>
Z:This abc transcription is for personal use only,
Z:provided this notice remains attached.
Z:Used by permission of the composer and publisher.
Z:Paul Stewart Cranford 
L:1/8
Q:333
M:C|
K:G
A|GBBG AccA|B2 ge dBGB|c2 ec Bdgb|aged BAGE|!
GBBG AccA|B2 ge dBGB|c2 ec Bdgb|agef g3:|!
a|bggb agef|g2 ge dBGB|c2 ec Bdgb|aged Bdga|!
bggb agef|g2 ge dBGB|c2 ec Bdgb|agef g2 ga|!
b2 gb a2 ef|gfge dBGB|cAAc B2 GB|cBAG A2 BA|!
GBdg bggb|agef g2 dB|cedB cABd|cAFD G3|]!
